icons/Pix.svg

<svg width="16" height="16" viewBox="0 0 16 16" fill="none" xmlns="http://www.w3.org/2000/svg">
<path d="M11.9174 11.71C11.3681 11.71 10.8516 11.4961 10.4633 11.1079L8.36351 9.00808C8.21615 8.86026 7.95917 8.86072 7.81181 9.00808L5.70442 11.1156C5.31601 11.5037 4.79947 11.7176 4.2502 11.7176H3.83644L6.49573 14.3771C7.32628 15.2076 8.67284 15.2076 9.50339 14.3771L12.1704 11.71H11.9174Z" fill="#2C3357"/>
<path d="M4.2502 4.2823C4.79947 4.2823 5.31601 4.49624 5.70436 4.88447L7.81174 6.99229C7.96351 7.14407 8.21135 7.14473 8.36351 6.9921L10.4632 4.89211C10.8516 4.50388 11.3681 4.29 11.9174 4.29H12.1703L9.50339 1.62294C8.67284 0.792352 7.32628 0.792352 6.49573 1.62294L3.83651 4.2823H4.2502Z" fill="#2C3357"/>
<path d="M14.377 6.49582L12.7653 4.88399C12.7298 4.89821 12.6914 4.9071 12.6509 4.9071H11.9181C11.5392 4.9071 11.1684 5.06073 10.9007 5.32861L8.80081 7.4286C8.60438 7.6251 8.3462 7.72348 8.0882 7.72348C7.83002 7.72348 7.57202 7.6251 7.37553 7.4288L5.26782 5.32097C5.00008 5.05309 4.62929 4.89946 4.2504 4.89946H3.34934C3.31096 4.89946 3.275 4.89037 3.24109 4.8776L1.62295 6.49582C0.792349 7.3264 0.792349 8.67312 1.62295 9.50383L3.24103 11.122C3.27494 11.1092 3.31096 11.1001 3.34934 11.1001H4.2504C4.62929 11.1001 5.00008 10.9465 5.26782 10.6786L7.37534 8.57098C7.75627 8.19036 8.42027 8.19017 8.80081 8.57118L10.9007 10.6709C11.1684 10.9389 11.5392 11.0925 11.9181 11.0925H12.6509C12.6915 11.0925 12.7298 11.1013 12.7654 11.1155L14.377 9.50383C15.2077 8.67312 15.2077 7.3264 14.377 6.49582Z" fill="#2C3357"/>
</svg>

<svg xmlns="http://www.w3.org/2000/svg" width="16" height="16" viewBox="0 0 16 16"><path d="M11.917 11.71a2.046 2.046 0 01-1.454-.602l-2.1-2.1a.4.4 0 00-.551 0l-2.108 2.108a2.044 2.044 0 01-1.454.602h-.414l2.66 2.66c.83.83 2.177.83 3.007 0l2.667-2.668h-.253zM4.25 4.282c.55 0 1.066.214 1.454.602l2.108 2.108a.39.39 0 00.552 0l2.1-2.1a2.044 2.044 0 011.453-.602h.253L9.503 1.623a2.127 2.127 0 00-3.007 0l-2.66 2.66h.414z"/><path d="M14.377 6.496l-1.612-1.612a.307.307 0 01-.114.023h-.733c-.379 0-.75.154-1.017.422l-2.1 2.1a1.005 1.005 0 01-1.425 0L5.268 5.32a1.448 1.448 0 00-1.018-.422h-.9a.306.306 0 01-.109-.021L1.623 6.496c-.83.83-.83 2.177 0 3.008l1.618 1.618a.305.305 0 01.108-.022h.901c.38 0 .75-.153 1.018-.421L7.375 8.57a1.034 1.034 0 011.426 0l2.1 2.1c.267.268.638.421 1.017.421h.733c.04 0 .079.01.114.024l1.612-1.612c.83-.83.83-2.178 0-3.008z"/></svg>
